X:1
T:Quand je suis parti de La Rochelle
T:Quand je suis parti de La Rochelle
T:Tablature Accordéon - Mi mineur
T:Traditionnel Chant de Marin 
C:Traditionnel
L:1/8
Q:1/4=100
M:3/4
K:G
V:1 treble nm="Accordéon"
V:1
"Em""^A" EF GA"G" B2- | BG B2"C" G2 |"D" F2"Em" E3 B, |"Em" EF GA"G" B2- | BG B2"C" G2 | %5
w: 4' * 6 * 7|* 6 7 6|* 4' 4|4' * 6 * 7|* 6 7 6|
w: * 6 * 7 *||6 * *|* 6 * 7 *||
"D" F2"Em" E4 |"Em""^B" E2 FG"D" F2- | FG AF"G" B2- | BA GF"C" E2 | GE"B7" F2 B,2- | %10
w: * 4'|4' * 6 *|* 6 * * 7|* * 6 * 4'|6 4' * *|
w: 6 *|* 6 * 6|* * 7 6 *|* 7 * 6 *|* * 6 2'|
 B,2"Em" E2 FG |"D" F2- FG AF |"G" B2- BA"C" G2 |"D" F2"Em" E4 |] %14
w: * 4' * 6|* * 6 * *|7 * * 6|* 4'|
w: * * 6 *|6 * * 7 6|* * 7 *|6 *|

